!!!COA: des Prez, Josquin
!!!CDT: ~1450-1521/08/27
!!!OTL@@FRE: Pour souhaitter
!!!AGN: Chanson
!!!SCT: NJE 30.8
!!!SCA: New Josquin Edition 30.8
!!!voices: 6
**kern	**text	**kern	**text	**kern	**text	**kern	**text	**kern	**text	**kern	**text
*staff6	*	*staff5	*	*staff4	*	*staff3	*	*staff2	*	*staff1	*
*Ivox	*	*Ivox	*	*Ivox	*	*Ivox	*	*Ivox	*	*Ivox	*
*I"Bassus	*	*I"Tenor	*	*I"Quinta pars	*	*I"Altus	*	*I"Sexta pars	*	*I"Superius	*
*I'B	*	*I'T	*	*I'Q	*	*I'Ct	*	*I'Sx	*	*I'S	*
*clefF4	*	*clefGv2	*	*clefGv2	*	*clefGv2	*	*clefGv2	*	*clefG2	*
*k[]	*	*k[]	*	*k[]	*	*k[]	*	*k[]	*	*k[]	*
*M2/1	*	*M2/1	*	*M2/1	*	*M2/1	*	*M2/1	*	*M2/1	*
*met(C|)	*	*met(C|)	*	*met(C|)	*	*met(C|)	*	*met(C|)	*	*met(C|)	*
=1-	=1-	=1-	=1-	=1-	=1-	=1-	=1-	=1-	=1-	=1-	=1-
!	!	!LO:TX:Z=10:t=Canon at the upper fifth (T-->Sexta pars, 2 breves)	!	!	!	!	!	!	!	!	!
0r	.	0r	.	1r	.	0r	.	0r	.	1d	Pour
.	.	.	.	1A	Pour	.	.	.	.	1f	sou-
=2	=2	=2	=2	=2	=2	=2	=2	=2	=2	=2	=2
0r	.	0r	.	1c	sou-	0r	.	0r	.	1e	-hait-
.	.	.	.	1B	-hait-	.	.	.	.	1d	-ter
=3	=3	=3	=3	=3	=3	=3	=3	=3	=3	=3	=3
1D	Pour	0r	.	1A	-ter	4D/	Pour	0r	.	2r	.
.	.	.	.	.	.	4E/	.	.	.	.	.
.	.	.	.	.	.	4F/	.	.	.	2a/	je
.	.	.	.	.	.	4G/	.	.	.	.	.
1F	sou-	.	.	1r	.	4A/	sou-	.	.	2a/	ne
.	.	.	.	.	.	4G/	.	.	.	.	.
.	.	.	.	.	.	4A/	.	.	.	2a/	de-
.	.	.	.	.	.	4B\	.	.	.	.	.
=4	=4	=4	=4	=4	=4	=4	=4	=4	=4	=4	=4
1E	-hait-	0r	.	0r	.	4c\	-hait-	0r	.	2.g/	-man-
.	.	.	.	.	.	4d\	.	.	.	.	.
.	.	.	.	.	.	4e\	.	.	.	.	.
.	.	.	.	.	.	4c\	.	.	.	4e/	.
1D	-ter	.	.	.	.	1d	-ter	.	.	4f/	.
.	.	.	.	.	.	.	.	.	.	4g/	.
.	.	.	.	.	.	.	.	.	.	[2a/	.
=5	=5	=5	=5	=5	=5	=5	=5	=5	=5	=5	=5
2r	.	1D	Pour	4D/	Pour	2r	.	0r	.	4a/]	.
.	.	.	.	4E/	.	.	.	.	.	4g/	.
2D\	je	.	.	4F/	.	2A/	je	.	.	4f/	.
.	.	.	.	4G/	.	.	.	.	.	4e/	.
2D\	ne	1F	sou-	4A/	sou-	2A/	ne	.	.	4d/	-de
.	.	.	.	4G/	.	.	.	.	.	4e/	.
2D\	de-	.	.	4A/	.	2F/	de-	.	.	4f/	.
.	.	.	.	4B\	.	.	.	.	.	4d/	.
=6	=6	=6	=6	=6	=6	=6	=6	=6	=6	=6	=6
1C	-man-	1E	-hait-	4c\	-hait-	1G	-man-	0r	.	1e	mieulx,
.	.	.	.	4d\	.	.	.	.	.	.	.
.	.	.	.	4e\	.	.	.	.	.	.	.
.	.	.	.	4c\	.	.	.	.	.	.	.
1BB	-de	1D	-ter	1d	-ter	1G	-de	.	.	1r	.
=7	=7	=7	=7	=7	=7	=7	=7	=7	=7	=7	=7
0AA	mieulx,	2r	.	2r	.	0A	mieulx,	1A	Pour	4A/	pour
.	.	.	.	.	.	.	.	.	.	4B/	.
.	.	2A/	je	2e\	je	.	.	.	.	4c/	.
.	.	.	.	.	.	.	.	.	.	4d/	.
.	.	2A/	ne	2e\	ne	.	.	1c	sou-	4e/	sou-
.	.	.	.	.	.	.	.	.	.	4d/	.
.	.	2A/	de-	2c\	de-	.	.	.	.	4e/	.
.	.	.	.	.	.	.	.	.	.	4f/	.
=8	=8	=8	=8	=8	=8	=8	=8	=8	=8	=8	=8
0r	.	1G	-man-	1d	-man-	1r	.	1B	-hait-	4g/	-hait-
.	.	.	.	.	.	.	.	.	.	4a/	.
.	.	.	.	.	.	.	.	.	.	4b\	.
.	.	.	.	.	.	.	.	.	.	4g/	.
.	.	1F	-de	1d	-de	1D	je	1A	-ter	1a	-ter
=9	=9	=9	=9	=9	=9	=9	=9	=9	=9	=9	=9
2r	.	0E	mieulx,	0e	mieulx,	1.G	ne	2r	.	2r	.
2C/	je	.	.	.	.	.	.	2e\	je	2g/	je
2C/	ne	.	.	.	.	.	.	2e\	ne	2cc\	ne
2C/	de-	.	.	.	.	2G/	de-	2e\	de-	2cc\	de-
=10	=10	=10	=10	=10	=10	=10	=10	=10	=10	=10	=10
1GG	-man-	0r	.	1r	.	1G	-man-	1d	-man-	1b	-man-
1AA	-de	.	.	2r	.	2.C/	-de	1c	-de	1a	-de
.	.	.	.	2e\	Qu'a-	.	.	.	.	.	.
.	.	.	.	.	.	4D/	.	.	.	.	.
=11	=11	=11	=11	=11	=11	=11	=11	=11	=11	=11	=11
1EE	mieulx	1G	Qu'a-	2e\	-voir	0E	mieulx	0B	mieulx	0g	mieulx
.	.	.	.	1e	san-	.	.	.	.	.	.
2r	.	1G	-voir	.	.	.	.	.	.	.	.
2E\	Qu'a-	.	.	4d\	.	.	.	.	.	.	.
.	.	.	.	4c\	.	.	.	.	.	.	.
=12	=12	=12	=12	=12	=12	=12	=12	=12	=12	=12	=12
1E	Qu'a-	1G	san-	1B	t&eacute;,	2r	.	0r	.	1r	.
.	.	.	.	.	.	2B\	Qu'a-	.	.	.	.
1AA	san-	1A	t&eacute;	[1A	san-	2c\	-voir	.	.	2r	.
.	.	.	.	.	.	2c\	san-	.	.	2e/	Qu'a-
=13	=13	=13	=13	=13	=13	=13	=13	=13	=13	=13	=13
1D	t&eacute;	2r	.	1A]	.	2d\	t&eacute;	1d	Qu'a-	2f/	-voir
.	.	2D/	et	.	.	2A/	et	.	.	2f/	san-
2r	.	2G/	vi-	2.G/	t&eacute;	2B\	vi-	1d	-voir	1g	t&eacute;
2GG/	Qu'a-	2G/	-vre	.	.	2B\	-vre	.	.	.	.
.	.	.	.	4F/	.	.	.	.	.	.	.
=14	=14	=14	=14	=14	=14	=14	=14	=14	=14	=14	=14
2D\	-voir	2F/	lon-	1D	.	2A/	lon-	1d	san-	2r	.
2GG/	san-	2G/	.	.	.	2.d\	.	.	.	2g/	et
3.C/V	t&eacute;	1E	-gue-	2r	.	.	.	1e	t&eacute;	2g/	vi-
.	.	.	.	.	.	4c\	.	.	.	.	.
6D\	.	.	.	2G/	et	4c\	-gue-	.	.	2g/	-vre
3E\Z	.	.	.	.	.	.	.	.	.	.	.
.	.	.	.	.	.	4B\	.	.	.	.	.
=15	=15	=15	=15	=15	=15	=15	=15	=15	=15	=15	=15
2F\	et	0D	-ment,	2A/	vi-	1d	-ment,	2r	.	4f/	lon-
.	.	.	.	.	.	.	.	.	.	4e/	.
1D	vi-	.	.	2A/	-vre	.	.	2A/	et	4f/	.
.	.	.	.	.	.	.	.	.	.	4g/	.
.	.	.	.	2.F/	lon-	1r	.	2d\	vi-	4a/	.
.	.	.	.	.	.	.	.	.	.	4g/	.
4C/	-vre	.	.	.	.	.	.	2d\	-vre	4a/	.
4BB/	.	.	.	4G/	-gue-	.	.	.	.	4b\	.
=16	=16	=16	=16	=16	=16	=16	=16	=16	=16	=16	=16
2AA/	lon-	2r	.	2A/	-ment,	2r	.	2c\	lon-	2cc\	.
2D\	.	2D/	et	2D/	.	2d\	et	2d\	.	2.a/	.
1GG	-gue-	2G/	vi-	1r	.	2d\	vi-	1B	-gue-	.	.
.	.	.	.	.	.	.	.	.	.	4g/	.
.	.	2G/	-vre	.	.	2d\	-vre	.	.	4g/	-gue-
.	.	.	.	.	.	.	.	.	.	4f/	.
=17	=17	=17	=17	=17	=17	=17	=17	=17	=17	=17	=17
1D	-ment,	1F	lon-	1r	.	3.f\V	lon-	0A	-ment,	1a	-ment,
.	.	.	.	.	.	6e\	.	.	.	.	.
.	.	.	.	.	.	3d\Z	.	.	.	.	.
1AA	.	1E	-gue-	2r	.	3c#i\V	.	.	.	2r	.
.	.	.	.	.	.	3d\	.	.	.	.	.
.	.	.	.	2A/	et	.	.	.	.	2e/	et
.	.	.	.	.	.	3c#i\Z	-gue-	.	.	.	.
=18	=18	=18	=18	=18	=18	=18	=18	=18	=18	=18	=18
2r	.	0D	-ment,	2A/	vi-	1d	-ment,	2r	.	4f/	vi-
.	.	.	.	.	.	.	.	.	.	4e/	.
2D\	et	.	.	2A/	-vre	.	.	2A/	et	4f/	-vre
.	.	.	.	.	.	.	.	.	.	4g/	.
2D\	vi-	.	.	2.F/	lon-	1f	.	2d\	vi-	4a/	lon-
.	.	.	.	.	.	.	.	.	.	4g/	.
2D\	-vre	.	.	.	.	.	.	2d\	-vre	4a/	.
.	.	.	.	4G/	-gue-	.	.	.	.	4b\	.
=19	=19	=19	=19	=19	=19	=19	=19	=19	=19	=19	=19
1AA	lon-	0r	.	1E	-ment,	0e	.	1c	lon-	2cc\	.
.	.	.	.	.	.	.	.	.	.	2.a/	.
1E	-gue-	.	.	1r	.	.	.	1B	-gue-	.	.
.	.	.	.	.	.	.	.	.	.	4g#i/	.
.	.	.	.	.	.	.	.	.	.	4g#i/	-gue-
.	.	.	.	.	.	.	.	.	.	4f#i/	.
=20	=20	=20	=20	=20	=20	=20	=20	=20	=20	=20	=20
0AA	-ment,	1A	Tous-	2r	.	2.c\	.	0A	-ment,	1a	-ment,
.	.	.	.	2A/	Tous-	.	.	.	.	.	.
.	.	.	.	.	.	4d\	.	.	.	.	.
.	.	1c	-jours	2A/	-jours	1e	.	.	.	2r	.
.	.	.	.	2A/	joy-	.	.	.	.	2e/	Tous-
=21	=21	=21	=21	=21	=21	=21	=21	=21	=21	=21	=21
2r	.	1B	joy-	1G	-eulx,	1r	.	0r	.	1g	-jours
2E\	Tous-	.	.	.	.	.	.	.	.	.	.
2F\	-jours	1A	-eulx,	2r	.	2r	.	.	.	1f	joy-
2D\	joy-	.	.	2A/	tous-	2A/	Tous-	.	.	.	.
=22	=22	=22	=22	=22	=22	=22	=22	=22	=22	=22	=22
1AA	-eulx,	0r	.	2A/	-jours	1c	-jours	1e	Tous-	1e	-eulx
.	.	.	.	2A/	joy-	.	.	.	.	.	.
2r	.	.	.	1G	-eulx	1B	joy-	1g	-jours	1r	.
2E\	tous-	.	.	.	.	.	.	.	.	.	.
=23	=23	=23	=23	=23	=23	=23	=23	=23	=23	=23	=23
2F\	-jours	2r	.	2r	.	1A	-eulx	1f	joy-	2r	.
2D\	joy-	2A/	et	2A/	et	.	.	.	.	2a/	et
1AA	-eulx	2A/	des	2c\	des	1r	.	1e	-eulx	2a/	des
.	.	2E/	biens	2c\	biens	.	.	.	.	2a/	biens
=24	=24	=24	=24	=24	=24	=24	=24	=24	=24	=24	=24
0r	.	2G/	lar-	2B\	lar-	0r	.	0r	.	2b\	lar-
.	.	2A/	.	1e	.	.	.	.	.	1cc	.
.	.	1F	-ge-	.	.	.	.	.	.	.	.
.	.	.	.	2d\	-ge-	.	.	.	.	4b\	-ge-
.	.	.	.	.	.	.	.	.	.	4a/	.
=25	=25	=25	=25	=25	=25	=25	=25	=25	=25	=25	=25
2r	.	0E	-ment,	0e	-ment,	2r	.	2r	.	2g/	-ment,
2E\	et	.	.	.	.	2G/	et	2e\	et	4e/	lar-
.	.	.	.	.	.	.	.	.	.	4f/	.
2E\	des	.	.	.	.	2G/	des	2e\	des	4g/	.
.	.	.	.	.	.	.	.	.	.	4a/	.
2E\	biens	.	.	.	.	2E/	biens	2B\	biens	4b\	.
.	.	.	.	.	.	.	.	.	.	4g/	.
=26	=26	=26	=26	=26	=26	=26	=26	=26	=26	=26	=26
2D\	lar-	0r	.	1r	.	2F/	lar-	2d\	lar-	2a/	.
2C/	.	.	.	.	.	2G/	.	2e\	.	1cc	.
1AA	-ge-	.	.	2r	.	1A	-ge-	1c	-ge-	.	.
.	.	.	.	2e\	Et	.	.	.	.	4b\	-ge-
.	.	.	.	.	.	.	.	.	.	4a/	.
=27	=27	=27	=27	=27	=27	=27	=27	=27	=27	=27	=27
1E	-ment,	1G	Et	2e\	en	0E	-ment,	0B	-ment,	0g	-ment,
.	.	.	.	1e	la	.	.	.	.	.	.
2r	.	1G	en	.	.	.	.	.	.	.	.
2E\	Et	.	.	4d\	.	.	.	.	.	.	.
.	.	.	.	4c\	.	.	.	.	.	.	.
=28	=28	=28	=28	=28	=28	=28	=28	=28	=28	=28	=28
1E	en	1G	la	1B	fin,	2r	.	0r	.	1r	.
.	.	.	.	.	.	2B\	Et	.	.	.	.
1AA	la	1A	fin	[1A	la	2c\	en	.	.	2r	.
.	.	.	.	.	.	2c\	la	.	.	2e/	Et
=29	=29	=29	=29	=29	=29	=29	=29	=29	=29	=29	=29
1D	fin	2r	.	1A]	.	2d\	fin	1d	Et	2f/	en
.	.	2D/	le	.	.	2A/	le	.	.	2f/	la
2r	.	2G/	roy-	2.G/	fin	2B\	roy-	1d	en	1g	fin,
2GG/	le	2G/	-aul-	.	.	2B\	-aul-	.	.	.	.
.	.	.	.	4F/	.	.	.	.	.	.	.
=30	=30	=30	=30	=30	=30	=30	=30	=30	=30	=30	=30
2D\	roy-	2F/	-me	1D	.	2A/	-me	1d	la	2r	.
2GG/	-aul-	2G/	.	.	.	1d	des	.	.	2g/	et
3.C/V	-me	1E	des	2r	.	.	.	1e	fin	2g/	en
6D\	.	.	.	2G/	le	2c\	cieulx,	.	.	2g/	la
3E\Z	.	.	.	.	.	.	.	.	.	.	.
=31	=31	=31	=31	=31	=31	=31	=31	=31	=31	=31	=31
2F\	.	1D	cieulx,	2A/	roy-	0d	.	2r	.	1f	fin,
1D	.	.	.	2A/	-aul-	.	.	2A/	le	.	.
.	.	2r	.	2F/	-me	.	.	2d\	roy-	2r	.
4C/	.	2D/	et	[2A/	des	.	.	2d\	-aul-	2d/	et
4BB/	.	.	.	.	.	.	.	.	.	.	.
=32	=32	=32	=32	=32	=32	=32	=32	=32	=32	=32	=32
2AA/	.	1A	en	4A/]	.	1r	.	2c\	-me	2e/	en
.	.	.	.	4G/	.	.	.	.	.	.	.
2D\	des	.	.	2F/	.	.	.	2d\	.	2f/	la
4E\	cieulx,	1G	la	1E	cieulx,	2r	.	1B	des	1g	fin
4F\	.	.	.	.	.	.	.	.	.	.	.
4G\	.	.	.	.	.	2G/	et	.	.	.	.
4E\	.	.	.	.	.	.	.	.	.	.	.
=33	=33	=33	=33	=33	=33	=33	=33	=33	=33	=33	=33
2F\	.	2A/	fin	1r	.	2c\	en	1A	cieulx,	2r	.
2D\	.	2F/	le	.	.	2d\	la	.	.	2a/	le
1AA	.	2E/	roy-	2r	.	1e	fin	2r	.	2.cc\	roy-
.	.	[2A/	-aul-	2c\	le	.	.	2A/	et	.	.
.	.	.	.	.	.	.	.	.	.	4b\	-aul-
=34	=34	=34	=34	=34	=34	=34	=34	=34	=34	=34	=34
0r	.	4A/]	.	2c\	roy-	1r	.	1e	en	2a/	-me
.	.	4G/	.	.	.	.	.	.	.	.	.
.	.	2E/	-me	2B\	-aul-	.	.	.	.	2g#i/	des
.	.	1F	des	2.A/	-me	2r	.	1d	la	1a	cieulx,
.	.	.	.	.	.	2A/	le	.	.	.	.
.	.	.	.	4F/	.	.	.	.	.	.	.
=35	=35	=35	=35	=35	=35	=35	=35	=35	=35	=35	=35
2r	.	0E	cieulx,	2G/	.	2B\	roy-	2e\	fin	2r	.
2AA/	le	.	.	2A/	des	2c\	-aul-	2c\	le	2a/	le
2E\	roy-	.	.	1E	cieulx,	2G/	-me	2B\	roy-	2b\	roy-
2AA/	-aul-	.	.	.	.	2A/	des	[2e\	-aul-	[2cc\	-aul-
=36	=36	=36	=36	=36	=36	=36	=36	=36	=36	=36	=36
1E	-me	0r	.	1r	.	0E	cieulx,	4e\]	.	4cc\]	.
.	.	.	.	.	.	.	.	4d\	.	4b\	.
.	.	.	.	.	.	.	.	2B\	-me	2g/	-me
1AA	des	.	.	2r	.	.	.	1c	des	1a	des
.	.	.	.	2e\	et	.	.	.	.	.	.
=37	=37	=37	=37	=37	=37	=37	=37	=37	=37	=37	=37
1E	cieulx,	1G	et	2e\	en	0r	.	0B	cieulx,	0g	cieulx,
.	.	.	.	1e	la	.	.	.	.	.	.
2r	.	1G	en	.	.	.	.	.	.	.	.
2E\	et	.	.	4d\	.	.	.	.	.	.	.
.	.	.	.	4c\	.	.	.	.	.	.	.
=38	=38	=38	=38	=38	=38	=38	=38	=38	=38	=38	=38
1E	en	1G	la	1B	fin,	2r	.	0r	.	1r	.
.	.	.	.	.	.	2B\	et	.	.	.	.
1AA	la	1A	fin	[1A	la	2c\	en	.	.	2r	.
.	.	.	.	.	.	2c\	la	.	.	2e/	et
=39	=39	=39	=39	=39	=39	=39	=39	=39	=39	=39	=39
1D	fin	2r	.	1A]	.	2d\	fin	1d	et	2f/	en
.	.	2D/	le	.	.	2A/	le	.	.	2f/	la
2r	.	2G/	roy-	2.G/	fin	2B\	roy-	1d	en	1g	fin
2GG/	le	2G/	-aul-	.	.	2B\	-aul-	.	.	.	.
.	.	.	.	4F/	.	.	.	.	.	.	.
=40	=40	=40	=40	=40	=40	=40	=40	=40	=40	=40	=40
2D\	roy-	2F/	-me	1D	.	2A/	-me	1d	la	2r	.
2GG/	-aul-	2G/	.	.	.	1d	des	.	.	2g/	le
3.C/V	-me	1E	des	2r	.	.	.	1e	fin	2g/	roy-
6D\	.	.	.	2G/	le	2c\	.	.	.	2g/	-aul-
3E\Z	.	.	.	.	.	.	.	.	.	.	.
=41	=41	=41	=41	=41	=41	=41	=41	=41	=41	=41	=41
2F\	.	0D	cieulx,	2A/	roy-	2.d\	cieulx,	2r	.	4f/	-me
.	.	.	.	.	.	.	.	.	.	4e/	.
1D	.	.	.	2A/	-aul-	.	.	2A/	le	4f/	.
.	.	.	.	.	.	4e\	le	.	.	4g/	.
.	.	.	.	2F/	-me	2f\	roy-	2d\	roy-	4a/	.
.	.	.	.	.	.	.	.	.	.	4g/	.
4C/	.	.	.	[2A/	des	2d\	-aul-	2d\	-aul-	4a/	.
4BB/	.	.	.	.	.	.	.	.	.	4b\	.
=42	=42	=42	=42	=42	=42	=42	=42	=42	=42	=42	=42
2AA/	.	0r	.	4A/]	.	2e\	-me	2c\	-me	2cc\	.
.	.	.	.	4G/	.	.	.	.	.	.	.
2D\	des	.	.	2F/	.	2f\	des	2d\	.	2.a/	des
1GG	cieulx.	.	.	1G	cieulx,	1d	cieulx.	1B	des	.	.
.	.	.	.	.	.	.	.	.	.	4g/	.
.	.	.	.	.	.	.	.	.	.	4g/	.
.	.	.	.	.	.	.	.	.	.	4f/	.
=43	=43	=43	=43	=43	=43	=43	=43	=43	=43	=43	=43
1DD	le	2r	.	2r	.	2r	.	[0Al	cieulx.	2a/	cieulx,
.	.	2D/	le	2F/	le	2d\	le	.	.	2f/	le
2AA/	roy-	2C/	roy-	2c\	roy-	2e\	roy-	.	.	2e/	roy-
2DD/	-aul-	2D/	-aul-	2F/	-aul-	[2f\	-aul-	.	.	[2a/	-aul-
=44	=44	=44	=44	=44	=44	=44	=44	=44	=44	=44	=44
1AA	-me	1C	-me	1c	-me	4f\]	.	0A_	.	4a/]	.
.	.	.	.	.	.	4e\	.	.	.	4g/	.
.	.	.	.	.	.	2e\	-me	.	.	2e/	-me
1DD	des	1D	des	2.F/	des	1d	des	.	.	1f	des
.	.	.	.	4G/	.	.	.	.	.	.	.
=45	=45	=45	=45	=45	=45	=45	=45	=45	=45	=45	=45
0AAl	cieulx.	0AAl	cieulx.	0Al	cieulx.	0cl	cieulx.	0A]	.	0el	cieulx.
==	==	==	==	==	==	==	==	==	==	==	==
*-	*-	*-	*-	*-	*-	*-	*-	*-	*-	*-	*-
!!!RDF**kern: l=long note in original notation
!!!RDF**kern: i=editorial accidental
!!!ENC: Will Watson 07/09/2011
!!!END: 2011/09/07/
!!!EED: Jesse Rodin
!!!EEV: 2011/12/01/
!!attribution-level@Jos: 2 (provisionally attributable [parentheses checkmark])
!!!ONB: Translated from MusicXML and edited on 2011/12/01/ by Craig Sapp
!!muse2ps: C^@{COA}\n@{SCT}^i2I150v85,85,85,85,85,100z18l2550t200c125
